X:403
T: Der Jud von Seebach (4-99), S. 133
N: P0673
O: Lothringen
S: PINCK, Louis: Verklingende Weisen Bd 4, Kassel 1939]
R: Tanzweise]
M: 2/4
L: 1/8
K: C
 | cccc | cBB2 |
AAAA | AGG
G | eccc | A4 | B4 | c4 |
cccc | cBB2 |
AAAA | AGG
G | eccc | A4 | B4 | c4

@@@ Tune index: 7953
